X: 20192
M: 2/4
L: 1/8
K: D
d2Ad | f2ed | cBGB | A2FA |\
d2Ad | f2ed | cegc | d2-d H|] [K:=c][K:G]\
c |\
d2ba | gfed | cAed | G2- "^D.C."G |]


